X: 3
T: Glen Echo Jig $1(\251Larry Unger)
M: 6/8
L: 1/8
R: jig
K: G
"G"B3 BAB|"Em"GED E2D|"C"EGD EGD|EGB "D"AGE|
"G"B2B BAB|"Em"GED E2D|"C"EGD EGB|"D"AGE G3:|]
|:"G"B,2D DED| B,DE D2D|"C"E2G GED|"Am"GED "D"B,A,G, |
"G"B,2D DED| B,DE D2D|"C"EGB AGE|"D"DB,A, "G"G,3:|]
%%begintext ragged
STOP.  Do not play Sligo Creek after Glen Echo!  This is not a four-tune set!
%%endtext
%%sep 0 0 20cm

